svg/material-icons/view_cozy/materialicons/20px.svg

<svg xmlns="http://www.w3.org/2000/svg" width="20" height="20" viewBox="0 0 20 20"><path d="M16.5 4h-13C2.67 4 2 4.67 2 5.5v9c0 .83.67 1.5 1.5 1.5h13c.83 0 1.5-.67 1.5-1.5v-9c0-.83-.67-1.5-1.5-1.5zm-7.25 9.75h-3v-3h3v3zm0-4.5h-3v-3h3v3zm4.5 4.5h-3v-3h3v3zm0-4.5h-3v-3h3v3z"/></svg>

<svg xmlns="http://www.w3.org/2000/svg" enable-background="new 0 0 20 20" height="20" viewBox="0 0 20 20" width="20"><g><rect fill="none" height="20" width="20"/></g><g><g><path d="M16.5,4h-13C2.67,4,2,4.67,2,5.5v9C2,15.33,2.67,16,3.5,16h13c0.83,0,1.5-0.67,1.5-1.5v-9C18,4.67,17.33,4,16.5,4z M9.25,13.75h-3v-3h3V13.75z M9.25,9.25h-3v-3h3V9.25z M13.75,13.75h-3v-3h3V13.75z M13.75,9.25h-3v-3h3V9.25z"/></g></g></svg>
